images/partners/partner-6.svg

<svg width="72" height="20" viewBox="0 0 72 20" fill="none" xmlns="http://www.w3.org/2000/svg">
<path d="M16.6473 6.68164C16.8436 6.68164 16.9091 6.75255 16.9091 6.94346V11.2635H19.1291C19.32 11.2635 19.3909 11.3344 19.3909 11.5253V11.9071C19.3909 12.098 19.32 12.1689 19.1291 12.1689H16.2054C16.0145 12.1689 15.9382 12.098 15.9382 11.9071V6.94346C15.9382 6.75255 16.0145 6.68164 16.2054 6.68164H16.6473Z" fill="#D1D1D1"/>
<path d="M21.3273 8.58459C21.3273 7.32459 22.1236 6.56641 23.5091 6.56641C24.8945 6.56641 25.6909 7.32459 25.6909 8.58459V10.2646C25.6909 11.5246 24.8891 12.2828 23.5091 12.2828C22.1291 12.2828 21.3273 11.5246 21.3273 10.2646V8.58459ZM24.7745 8.58459C24.7745 7.8755 24.3327 7.49368 23.5364 7.49368C22.74 7.49368 22.3036 7.88095 22.3036 8.58459V10.2755C22.3036 10.99 22.74 11.3664 23.5364 11.3664C24.3327 11.3664 24.7745 10.9737 24.7745 10.2755V8.58459Z" fill="#D1D1D1"/>
<path d="M32.1873 9.1631C32.4 9.1631 32.4491 9.23401 32.4491 9.42492V10.4613C32.4549 10.7054 32.406 10.9477 32.3059 11.1704C32.2058 11.3932 32.0572 11.5907 31.8709 11.7486C31.4082 12.117 30.8248 12.2998 30.2346 12.2613C28.8218 12.2613 28.0527 11.5031 28.0527 10.2431V8.55219C28.0527 7.30856 28.8491 6.54492 30.2346 6.54492C31.3255 6.54492 32.0346 6.97583 32.3346 7.83765C32.3514 7.87005 32.3604 7.90589 32.3608 7.94232C32.3613 7.97881 32.3533 8.01492 32.3374 8.0477C32.3216 8.08054 32.2982 8.10923 32.2693 8.13149C32.2404 8.15369 32.2067 8.1689 32.1709 8.17583L31.7455 8.3231C31.56 8.38856 31.4836 8.35038 31.4182 8.15947C31.3278 7.9265 31.1624 7.73025 30.948 7.60185C30.7336 7.47345 30.4826 7.4201 30.2346 7.45038C29.4327 7.45038 28.9964 7.83765 28.9964 8.54129V10.2758C28.9964 10.9904 29.4382 11.3667 30.2346 11.3667C31.0309 11.3667 31.5218 11.0013 31.5218 10.4667V10.0631H30.3382C30.1418 10.0631 30.0709 9.98674 30.0709 9.79583V9.42492C30.0709 9.23401 30.1418 9.1631 30.3382 9.1631H32.1873Z" fill="#D1D1D1"/>
<path d="M34.7018 8.58459C34.7018 7.32459 35.4982 6.56641 36.8837 6.56641C38.2691 6.56641 39.0655 7.32459 39.0655 8.58459V10.2646C39.0655 11.5246 38.2637 12.2828 36.8837 12.2828C35.5037 12.2828 34.7018 11.5246 34.7018 10.2646V8.58459ZM38.1437 8.58459C38.1437 7.8755 37.7018 7.49368 36.9109 7.49368C36.12 7.49368 35.6728 7.88095 35.6728 8.58459V10.2755C35.6728 10.99 36.1146 11.3664 36.9109 11.3664C37.7073 11.3664 38.1437 10.9737 38.1437 10.2755V8.58459Z" fill="#D1D1D1"/>
<path d="M41.6345 6.83982C41.6345 6.71982 41.6727 6.68164 41.7927 6.68164H42.0436C42.1636 6.68164 42.1909 6.71982 42.1909 6.83982V12.0107C42.1909 12.1307 42.1909 12.1689 42.0436 12.1689H41.7927C41.6727 12.1689 41.6345 12.1307 41.6345 12.0107V6.83982Z" fill="#D1D1D1"/>
<path d="M47.16 6.68164C47.6143 6.68164 48.0499 6.86208 48.3711 7.1833C48.6923 7.50446 48.8727 7.94011 48.8727 8.39437C48.8727 8.84862 48.6923 9.28428 48.3711 9.60544C48.0499 9.92666 47.6143 10.1071 47.16 10.1071H45.5236V12.0107C45.5236 12.1307 45.4964 12.1689 45.3818 12.1689H45.1255C45.0109 12.1689 44.9673 12.1307 44.9673 12.0107V6.83982C44.9673 6.71982 45.0109 6.68164 45.1255 6.68164H47.16ZM47.1109 9.5671C47.2671 9.5671 47.4217 9.53633 47.566 9.4766C47.7102 9.41682 47.8413 9.32922 47.9517 9.21882C48.0621 9.10842 48.1497 8.9773 48.2095 8.83308C48.2692 8.6888 48.3 8.53417 48.3 8.378C48.3 8.22184 48.2692 8.0672 48.2095 7.92293C48.1497 7.77871 48.0621 7.64759 47.9517 7.53719C47.8413 7.42679 47.7102 7.33919 47.566 7.2794C47.4217 7.21968 47.2671 7.18891 47.1109 7.18891H45.4746V9.5671H47.1109Z" fill="#D1D1D1"/>
<path d="M53.1327 6.57243C53.5539 6.52596 53.9787 6.61656 54.3443 6.83076C54.7096 7.04501 54.9965 7.37141 55.1618 7.76152C55.2055 7.84879 55.1618 7.9197 55.0745 7.96334L54.8345 8.07243C54.7364 8.11061 54.6982 8.10516 54.6382 8.00152C54.5146 7.71199 54.3021 7.46927 54.0315 7.30847C53.7609 7.14767 53.4461 7.07708 53.1327 7.10698C52.2109 7.10698 51.7091 7.47243 51.7091 8.12698C51.7038 8.32699 51.7709 8.52227 51.8983 8.67663C52.0256 8.83099 52.2044 8.93414 52.4018 8.96698C52.6952 9.06265 52.9994 9.12128 53.3073 9.14152C53.68 9.16138 54.0477 9.23676 54.3982 9.36516C54.6671 9.45019 54.8984 9.62507 55.0533 9.86048C55.2082 10.0959 55.2775 10.3775 55.2491 10.6579C55.2491 11.6779 54.5073 12.2942 53.1436 12.2942C52.6964 12.3454 52.2451 12.2418 51.8649 12.0006C51.4848 11.7594 51.1988 11.3952 51.0545 10.9688C51.0449 10.9494 51.0397 10.928 51.0393 10.9063C51.0388 10.8846 51.0433 10.8631 51.0521 10.8433C51.0609 10.8235 51.0741 10.8059 51.0905 10.7918C51.107 10.7776 51.1263 10.7673 51.1473 10.7615L51.3873 10.6742C51.4061 10.6665 51.4265 10.6628 51.4469 10.6633C51.4673 10.6639 51.4874 10.6687 51.5059 10.6774C51.5243 10.6861 51.5408 10.6986 51.5541 10.714C51.5675 10.7294 51.5776 10.7474 51.5836 10.767C51.7057 11.0751 51.9226 11.3364 52.2031 11.5129C52.4836 11.6894 52.813 11.7721 53.1436 11.7488C54.1745 11.7488 54.6818 11.3888 54.6818 10.6579C54.6916 10.4658 54.6327 10.2764 54.5157 10.1236C54.3988 9.97083 54.2315 9.86441 54.0436 9.82334C53.7614 9.73918 53.4704 9.6879 53.1764 9.67061L52.5873 9.59425C52.4029 9.55514 52.2208 9.50594 52.0418 9.44698C51.865 9.39358 51.7001 9.30652 51.5564 9.19061C51.4117 9.05959 51.2976 8.89836 51.2222 8.7183C51.1468 8.53825 51.1119 8.34385 51.12 8.14879C51.1582 7.19425 51.8727 6.57243 53.1327 6.57243Z" fill="#D1D1D1"/>
<path d="M58.1891 10.3035C58.212 10.6892 58.3816 11.0515 58.6631 11.3165C58.9445 11.5814 59.3165 11.7289 59.7027 11.7289C60.0889 11.7289 60.4609 11.5814 60.7423 11.3165C61.0238 11.0515 61.1929 10.6892 61.2164 10.3035V6.83982C61.2164 6.71982 61.2545 6.68164 61.3745 6.68164H61.6254C61.7454 6.68164 61.7836 6.71982 61.7836 6.83982V10.298C61.7836 11.5362 61.0527 12.2835 59.7054 12.2835C58.3582 12.2835 57.6273 11.5362 57.6273 10.298V6.83982C57.6273 6.71982 57.6654 6.68164 57.78 6.68164H58.0363C58.1509 6.68164 58.1891 6.71982 58.1891 6.83982V10.3035Z" fill="#D1D1D1"/>
<path d="M69.3109 6.68257C69.4309 6.68257 69.4691 6.72075 69.4691 6.84075V12.0117C69.4691 12.1317 69.4309 12.1698 69.3109 12.1698H69.0818C68.9673 12.1698 68.9291 12.1317 68.9291 12.0117V8.86439C68.9291 8.40648 68.9602 7.94906 69.0218 7.4953H68.9891C68.8189 7.91023 68.6198 8.31299 68.3946 8.70075L67.2218 10.768C67.2077 10.8039 67.1826 10.8346 67.1504 10.856C67.1182 10.8774 67.0806 10.8886 67.0418 10.888H66.8891C66.8498 10.8882 66.8117 10.877 66.7784 10.8557C66.7457 10.8344 66.7195 10.8039 66.7037 10.768L65.5146 8.67894C65.3035 8.29674 65.1213 7.89926 64.9691 7.48984H64.9364C64.992 7.94775 65.0215 8.40855 65.0237 8.86984V12.0117C65.0237 12.1317 64.9855 12.1698 64.8655 12.1698H64.6528C64.5328 12.1698 64.4946 12.1317 64.4946 12.0117V6.84075C64.4946 6.72075 64.5328 6.68257 64.6528 6.68257H64.8491C64.8938 6.67843 64.9391 6.68819 64.9778 6.71066C65.0171 6.73314 65.0482 6.76717 65.0673 6.80803L66.9764 10.2008L68.8746 6.84075C68.9346 6.72621 68.9673 6.70984 69.0873 6.70984L69.3109 6.68257Z" fill="#D1D1D1"/>
<path d="M6.94364 11.3404V15.284C6.94364 15.4352 6.88359 15.5802 6.77668 15.687C6.66982 15.7939 6.52484 15.854 6.37364 15.854C6.2225 15.854 6.07751 15.7939 5.97061 15.687C5.8637 15.5802 5.80364 15.4352 5.80364 15.284V11.3458C5.96237 11.4617 6.15262 11.5264 6.3491 11.5313C6.56324 11.5374 6.77308 11.47 6.94364 11.3404ZM11.7982 10.2004C11.6535 10.2004 11.5148 10.2578 11.4125 10.3601C11.3102 10.4624 11.2527 10.6012 11.2527 10.7458V11.4331C11.2527 11.5843 11.3128 11.7293 11.4197 11.8361C11.5266 11.943 11.6715 12.0031 11.8227 12.0031C11.9739 12.0031 12.1189 11.943 12.2258 11.8361C12.3327 11.7293 12.3927 11.5843 12.3927 11.4331V10.7731C12.397 10.6949 12.3843 10.6166 12.3556 10.5438C12.327 10.4709 12.2829 10.405 12.2265 10.3507C12.1701 10.2964 12.1026 10.2548 12.0288 10.2288C11.9548 10.2029 11.8762 10.1932 11.7982 10.2004ZM4.56546 12.8349C4.36919 12.829 4.17919 12.7644 4.02001 12.6494V16.604C4.02001 16.7559 4.08034 16.9016 4.18775 17.009C4.29516 17.1164 4.44083 17.1767 4.59273 17.1767C4.74463 17.1767 4.89031 17.1164 4.99771 17.009C5.10512 16.9016 5.16546 16.7559 5.16546 16.604V12.6767C4.98734 12.7919 4.77718 12.8473 4.56546 12.8349ZM10.02 9.01672C9.9461 9.01301 9.87224 9.02441 9.80286 9.05015C9.73353 9.0759 9.67015 9.1155 9.61653 9.1665C9.56297 9.21756 9.52037 9.27892 9.49124 9.34694C9.46217 9.41496 9.44717 9.48821 9.44728 9.56217V12.6004C9.44728 12.7523 9.50761 12.898 9.61501 13.0054C9.72246 13.1128 9.8681 13.1731 10.02 13.1731C10.1719 13.1731 10.3176 13.1128 10.425 13.0054C10.5324 12.898 10.5927 12.7523 10.5927 12.6004V9.60036C10.5971 9.52165 10.5843 9.44294 10.5553 9.36963C10.5263 9.29632 10.4818 9.23016 10.4247 9.17572C10.3677 9.12128 10.2996 9.07983 10.225 9.0543C10.1504 9.02872 10.0712 9.01961 9.99273 9.02763L10.02 9.01672ZM8.2091 10.184C8.00362 10.1826 7.80366 10.1178 7.63637 9.99854V13.964C7.63637 14.1159 7.6967 14.2616 7.8041 14.369C7.91155 14.4764 8.05719 14.5367 8.2091 14.5367C8.36101 14.5367 8.50664 14.4764 8.6141 14.369C8.7215 14.2616 8.78182 14.1159 8.78182 13.964V10.004C8.60881 10.1329 8.39755 10.2001 8.18182 10.1949L8.2091 10.184ZM3.32728 13.2222V2.14399C3.32584 2.00895 3.27119 1.87994 3.17519 1.78496C3.07919 1.68998 2.94959 1.63671 2.81455 1.63672H2.69455C2.55951 1.63671 2.42991 1.68998 2.33391 1.78496C2.23791 1.87994 2.18326 2.00895 2.18182 2.14399V13.2222C2.18182 13.3582 2.23585 13.4886 2.332 13.5847C2.42815 13.6809 2.55857 13.7349 2.69455 13.7349H2.81455C2.95054 13.7349 3.08095 13.6809 3.1771 13.5847C3.27326 13.4886 3.32728 13.3582 3.32728 13.2222ZM4.62546 12.4149H4.50546C4.36948 12.4149 4.23906 12.3609 4.14291 12.2647C4.04675 12.1686 3.99273 12.0382 3.99273 11.9022V3.46399C3.99417 3.32896 4.04882 3.19994 4.14482 3.10496C4.24082 3.00998 4.37042 2.95671 4.50546 2.95672H4.62546C4.7605 2.95671 4.8901 3.00998 4.9861 3.10496C5.0821 3.19994 5.13675 3.32896 5.13819 3.46399V11.9131C5.13819 12.0491 5.08417 12.1795 4.98801 12.2756C4.89186 12.3718 4.76144 12.4258 4.62546 12.4258V12.4149ZM6.43091 11.1167H6.30546C6.17095 11.1167 6.0419 11.0633 5.94677 10.9681C5.85164 10.873 5.79819 10.744 5.79819 10.6094V4.77308C5.79748 4.70601 5.81008 4.63946 5.83522 4.57728C5.86037 4.5151 5.89762 4.45854 5.94481 4.41086C5.99199 4.36317 6.04817 4.32532 6.11008 4.29949C6.17199 4.27365 6.23837 4.26035 6.30546 4.26036H6.43091C6.56597 4.2618 6.69497 4.31644 6.78993 4.41244C6.88495 4.50844 6.93819 4.63804 6.93819 4.77308V10.6094C6.93819 10.744 6.88473 10.873 6.78961 10.9681C6.69448 11.0633 6.56548 11.1167 6.43091 11.1167ZM8.23637 9.78036H8.12182C7.98677 9.78036 7.85717 9.72712 7.76117 9.6321C7.66517 9.53714 7.61051 9.40814 7.6091 9.27308V6.13126C7.60462 6.06123 7.61455 5.99103 7.63833 5.92497C7.66206 5.85897 7.69915 5.79848 7.74721 5.74737C7.79526 5.69621 7.8533 5.65552 7.91777 5.6277C7.98219 5.59994 8.05162 5.58565 8.12182 5.58581H8.24182C8.37781 5.58581 8.50822 5.63981 8.60439 5.73597C8.70055 5.83214 8.75455 5.96256 8.75455 6.09854V9.26217C8.75526 9.32997 8.74255 9.39723 8.71708 9.46006C8.69166 9.5229 8.65402 9.58006 8.6063 9.62828C8.55862 9.67645 8.5019 9.71468 8.43928 9.74081C8.37671 9.76694 8.30962 9.78036 8.24182 9.78036H8.23637ZM10.0473 8.60763H9.92728C9.7913 8.60763 9.66088 8.55363 9.56471 8.45746C9.46855 8.3613 9.41455 8.23088 9.41455 8.0949V7.28217C9.41597 7.14712 9.47062 7.01812 9.56662 6.92316C9.66262 6.82814 9.79222 6.7749 9.92728 6.7749H10.0473C10.1823 6.7749 10.3119 6.82814 10.4079 6.92316C10.5039 7.01812 10.5586 7.14712 10.56 7.28217V8.0949C10.56 8.22996 10.5068 8.35956 10.4118 8.45555C10.3168 8.55156 10.1878 8.60621 10.0527 8.60763H10.0473Z" fill="#D1D1D1"/>
</svg>

<svg xmlns="http://www.w3.org/2000/svg" width="72" height="20" fill="none" viewBox="0 0 72 20"><path fill="#d1d1d1" d="M16.647 6.682c.197 0 .262.07.262.261v4.32h2.22c.191 0 .262.071.262.262v.382c0 .191-.071.262-.262.262h-2.924c-.19 0-.267-.071-.267-.262V6.943c0-.19.077-.261.267-.261zM21.327 8.585c0-1.26.797-2.019 2.182-2.019 1.386 0 2.182.759 2.182 2.019v1.68c0 1.26-.802 2.018-2.182 2.018s-2.182-.758-2.182-2.018zm3.447 0c0-.71-.441-1.091-1.238-1.091s-1.232.387-1.232 1.09v1.691c0 .715.436 1.091 1.232 1.091.797 0 1.238-.392 1.238-1.09zM32.187 9.163c.213 0 .262.071.262.262v1.036a1.64 1.64 0 0 1-.578 1.288 2.38 2.38 0 0 1-1.636.512c-1.413 0-2.182-.758-2.182-2.018v-1.69c0-1.244.796-2.008 2.182-2.008 1.09 0 1.8.43 2.1 1.293a.23.23 0 0 1-.066.293.24.24 0 0 1-.098.045l-.425.147c-.186.066-.262.027-.328-.164a1.124 1.124 0 0 0-1.183-.709c-.802 0-1.239.388-1.239 1.091v1.735c0 .714.442 1.09 1.239 1.09.796 0 1.287-.365 1.287-.9v-.403h-1.184c-.196 0-.267-.076-.267-.267v-.371c0-.191.07-.262.267-.262zM34.702 8.585c0-1.26.796-2.019 2.182-2.019s2.182.759 2.182 2.019v1.68c0 1.26-.802 2.018-2.182 2.018s-2.182-.758-2.182-2.018zm3.442 0c0-.71-.442-1.091-1.233-1.091s-1.238.387-1.238 1.09v1.691c0 .715.442 1.091 1.238 1.091s1.233-.392 1.233-1.09zM41.635 6.84c0-.12.038-.158.158-.158h.25c.12 0 .148.038.148.158v5.17c0 .12 0 .159-.147.159h-.251c-.12 0-.158-.038-.158-.158zM47.16 6.682a1.713 1.713 0 1 1 0 3.425h-1.636v1.904c0 .12-.028.158-.142.158h-.256c-.115 0-.159-.038-.159-.158V6.84c0-.12.044-.158.159-.158zm-.05 2.885a1.19 1.19 0 0 0 0-2.378h-1.635v2.378zM53.133 6.572a1.97 1.97 0 0 1 2.029 1.19c.044.087 0 .158-.087.201l-.24.11c-.099.038-.137.032-.197-.071a1.48 1.48 0 0 0-1.505-.895c-.922 0-1.424.365-1.424 1.02a.83.83 0 0 0 .693.84q.441.144.905.175c.373.02.74.095 1.091.223a1.23 1.23 0 0 1 .851 1.293c0 1.02-.742 1.636-2.105 1.636a1.97 1.97 0 0 1-2.09-1.325.147.147 0 0 1 .093-.207l.24-.088a.15.15 0 0 1 .167.04.2.2 0 0 1 .03.053 1.56 1.56 0 0 0 1.56.982c1.03 0 1.538-.36 1.538-1.091a.81.81 0 0 0-.638-.835 3.8 3.8 0 0 0-.868-.152l-.589-.077a5 5 0 0 1-.545-.147 1.4 1.4 0 0 1-.486-.256 1.33 1.33 0 0 1-.436-1.042c.038-.955.753-1.577 2.013-1.577M58.19 10.304a1.515 1.515 0 0 0 2.552 1.012c.282-.264.45-.627.474-1.013V6.84c0-.12.038-.158.158-.158h.251c.12 0 .159.038.159.158v3.458c0 1.238-.731 1.986-2.079 1.986-1.347 0-2.078-.748-2.078-1.986V6.84c0-.12.038-.158.153-.158h.256c.115 0 .153.038.153.158zM69.31 6.683c.12 0 .16.038.16.158v5.17c0 .12-.04.159-.16.159h-.228c-.115 0-.153-.038-.153-.158V8.864q0-.687.093-1.369h-.033q-.257.623-.594 1.206l-1.173 2.067a.19.19 0 0 1-.18.12h-.153a.2.2 0 0 1-.185-.12l-1.19-2.09a9 9 0 0 1-.545-1.188h-.033q.084.688.088 1.38v3.142c0 .12-.038.158-.159.158h-.212c-.12 0-.158-.038-.158-.158V6.84c0-.12.038-.158.158-.158h.196a.22.22 0 0 1 .218.125l1.91 3.393 1.898-3.36c.06-.115.092-.131.212-.131zM6.944 11.34v3.944a.57.57 0 1 1-1.14 0v-3.938c.158.116.349.18.545.185a.94.94 0 0 0 .595-.19m4.854-1.14a.545.545 0 0 0-.545.546v.687a.57.57 0 1 0 1.14 0v-.66a.544.544 0 0 0-.595-.573m-7.233 2.635a1 1 0 0 1-.545-.186v3.955a.573.573 0 1 0 1.145 0v-3.927a1 1 0 0 1-.6.158m5.455-3.818a.546.546 0 0 0-.573.545V12.6a.573.573 0 1 0 1.146 0v-3a.545.545 0 0 0-.6-.572zm-1.81 1.167a1 1 0 0 1-.574-.185v3.965a.573.573 0 1 0 1.146 0v-3.96a.97.97 0 0 1-.6.19zm-4.883 3.038V2.144a.513.513 0 0 0-.512-.507h-.12a.513.513 0 0 0-.513.507v11.078a.513.513 0 0 0 .513.513h.12a.513.513 0 0 0 .512-.513m1.298-.807h-.12a.513.513 0 0 1-.512-.513V3.464a.513.513 0 0 1 .512-.507h.12a.513.513 0 0 1 .513.507v8.45a.51.51 0 0 1-.513.512zm1.806-1.298h-.126a.507.507 0 0 1-.507-.508V4.773a.51.51 0 0 1 .507-.513h.126a.513.513 0 0 1 .507.513v5.836a.507.507 0 0 1-.507.508M8.236 9.78h-.114a.513.513 0 0 1-.513-.507V6.131a.51.51 0 0 1 .513-.545h.12a.513.513 0 0 1 .513.513v3.163a.51.51 0 0 1-.513.518zm1.811-1.172h-.12a.513.513 0 0 1-.512-.513v-.813a.513.513 0 0 1 .512-.507h.12a.513.513 0 0 1 .513.507v.813a.513.513 0 0 1-.507.513z"/></svg>
